X:1
T:A-Smokin' His Cigar
M:4/4
L:1/4
K:A
 E| A3/2 A/2 E A| c3/2 c/2 A c| d c B A| B3 E| A3/2 A/2 B c| d3/2 d/2 d F|\
 E c B ^D| E3 E| B3/2 ^A/2 B E| c3/2 =c/2 ^c E| B c d c| B3 E| A3/2 A/2 B c|\
 d3/2 d/2 d3/2 F/2| E A c3/2 B/2| A3 E| A3/2 A/2A/2-B/2c/2-A/2| B3/2 B/2 B E|\
 A B c d| B3 B| c3/2 B/2 A E| F A d3/2 F/2| E A c3/2 B/2| A3||
